docs/img/favicons/icon.svg

<svg width="152" height="152" viewBox="0 0 152 152" fill="none" xmlns="http://www.w3.org/2000/svg">
<rect width="152" height="152" fill="#EEEEEE"/>
<path d="M107.571 81.6418C107.237 72.7524 105.9 63.8629 105.9 54.9734C105.9 47.7301 107.237 40.1576 104.563 33.2436C104.563 32.5851 104.897 31.5974 104.897 30.9389C105.566 27.3173 93.8683 29.2927 92.1972 32.5851C91.1946 33.5728 90.5262 34.5605 90.8604 35.8775C90.8604 36.2067 91.1946 36.536 91.1946 36.8652C88.8551 47.4009 85.8472 57.9366 82.5051 68.143C81.1683 72.0939 79.4972 76.0448 78.1604 79.9957C76.1551 76.374 74.1498 72.7524 72.4788 68.8015C67.7998 57.2781 63.7893 45.7547 58.1077 34.8898C58.7761 29.9512 47.413 30.2804 45.0735 34.8898C42.3998 40.4869 42.734 46.0839 43.7366 52.3395C44.7393 59.2535 45.0735 65.8383 45.0735 72.7524C45.0735 85.922 46.4103 99.0916 46.4103 112.261C45.0735 113.578 44.7393 115.224 46.0761 116.871C46.7445 117.529 47.4129 118.187 48.0814 118.846C51.0893 121.151 59.7788 119.175 59.7788 114.566C59.7788 100.738 58.7761 87.2389 58.4419 73.4109C58.4419 72.0939 58.4419 70.7769 58.4419 69.46C58.7761 69.7892 58.7761 70.4477 59.1103 70.7769C61.1156 76.0448 63.4551 81.3126 66.463 86.2512C69.4709 91.1898 70.8077 96.4577 72.4788 101.725C71.8104 102.384 71.4761 103.372 71.8104 104.03C71.8104 104.689 72.1446 105.018 72.813 105.347C74.8183 107.323 79.163 106.335 81.1683 105.347C82.1709 105.018 83.1735 104.359 83.842 104.03C84.8446 103.372 86.8499 101.725 86.1814 100.079C86.1814 99.7501 85.8472 99.4208 85.8472 99.0916C87.5183 94.8115 88.1867 90.5313 89.1893 85.922C90.192 81.3126 91.863 76.7033 93.5341 72.0939C93.8683 74.0693 93.8683 76.374 94.2025 78.3495C94.8709 86.9097 94.2025 95.1407 94.2025 103.701C94.2025 106.664 94.5367 108.969 94.8709 111.932C95.2051 112.92 96.2078 117.858 95.8736 118.187C93.8683 120.163 94.5367 122.468 97.2104 122.797C100.218 123.455 104.229 122.468 106.568 120.492C110.579 116.871 108.574 110.944 107.905 106.335C105.9 98.4331 107.571 89.5436 107.571 81.6418Z" fill="black"/>
</svg>

<svg width="152" height="152" fill="none" xmlns="http://www.w3.org/2000/svg"><path fill="#EEE" d="M0 0h152v152H0z"/><path d="M107.571 81.642c-.334-8.89-1.671-17.78-1.671-26.669 0-7.243 1.337-14.815-1.337-21.73 0-.658.334-1.646.334-2.304.669-3.622-11.029-1.646-12.7 1.646-1.002.988-1.67 1.975-1.337 3.292 0 .33.335.659.335.988-2.34 10.536-5.348 21.072-8.69 31.278-1.337 3.95-3.008 7.902-4.345 11.853-2.005-3.622-4.01-7.244-5.681-11.194-4.68-11.524-8.69-23.047-14.371-33.912.668-4.939-10.695-4.61-13.034 0-2.674 5.597-2.34 11.194-1.337 17.45 1.002 6.913 1.337 13.498 1.337 20.412 0 13.17 1.336 26.34 1.336 39.509-1.336 1.317-1.67 2.963-.334 4.61a4111.2 4111.2 0 0 1 2.005 1.975c3.008 2.305 11.698.329 11.698-4.28 0-13.828-1.003-27.327-1.337-41.155V69.46c.334.33.334.988.668 1.317 2.006 5.268 4.345 10.536 7.353 15.474 3.008 4.939 4.345 10.207 6.016 15.474-.669.659-1.003 1.647-.669 2.305 0 .659.335.988 1.003 1.317 2.005 1.976 6.35.988 8.355 0 1.003-.329 2.005-.988 2.674-1.317 1.003-.658 3.008-2.305 2.34-3.951 0-.329-.335-.658-.335-.987 1.671-4.28 2.34-8.56 3.342-13.17 1.003-4.61 2.674-9.219 4.345-13.828.334 1.975.334 4.28.668 6.256.669 8.56 0 16.79 0 25.351 0 2.963.335 5.268.669 8.231.334.988 1.337 5.926 1.003 6.255-2.006 1.976-1.337 4.281 1.336 4.61 3.008.658 7.019-.329 9.358-2.305 4.011-3.621 2.006-9.548 1.337-14.157-2.005-7.902-.334-16.791-.334-24.693Z" fill="#000"/></svg>
